src/svg/law.svg

<svg height="16" width="14" xmlns="http://www.w3.org/2000/svg" viewBox="0 0 14 16">
  <path d="M7 4c-0.83 0-1.5-0.67-1.5-1.5s0.67-1.5 1.5-1.5 1.5 0.67 1.5 1.5-0.67 1.5-1.5 1.5z m7 6c0 1.11-0.89 2-2 2h-1c-1.11 0-2-0.89-2-2l2-4h-1c-0.55 0-1-0.45-1-1h-1v8c0.42 0 1 0.45 1 1h1c0.42 0 1 0.45 1 1H3c0-0.55 0.58-1 1-1h1c0-0.55 0.58-1 1-1h0.03l-0.03-8h-1c0 0.55-0.45 1-1 1h-1l2 4c0 1.11-0.89 2-2 2h-1C0.89 12 0 11.11 0 10l2-4H1v-1h3c0-0.55 0.45-1 1-1h4c0.55 0 1 0.45 1 1h3v1h-1l2 4zM2.5 7L1 10h3l-1.5-3z m10.5 3l-1.5-3-1.5 3h3z" />
</svg>

<?xml version="1.0" encoding="UTF-8" standalone="no"?>
<svg width="14px" height="16px" viewBox="0 0 14 16" version="1.1" xmlns="http://www.w3.org/2000/svg" xmlns:xlink="http://www.w3.org/1999/xlink">
    <!-- Generator: Sketch 3.7.1 (28215) - http://www.bohemiancoding.com/sketch -->
    <title>law</title>
    <desc>Created with Sketch.</desc>
    <defs></defs>
    <g id="Octicons" stroke="none" stroke-width="1" fill="none" fill-rule="evenodd">
        <g id="law" fill="#000000">
            <path d="M7,4 C6.17,4 5.5,3.33 5.5,2.5 C5.5,1.67 6.17,1 7,1 C7.83,1 8.5,1.67 8.5,2.5 C8.5,3.33 7.83,4 7,4 L7,4 Z M14,10 C14,11.11 13.11,12 12,12 L11,12 C9.89,12 9,11.11 9,10 L11,6 L10,6 C9.45,6 9,5.55 9,5 L8,5 L8,13 C8.42,13 9,13.45 9,14 L10,14 C10.42,14 11,14.45 11,15 L3,15 C3,14.45 3.58,14 4,14 L5,14 C5,13.45 5.58,13 6,13 L6.03,13 L6,5 L5,5 C5,5.55 4.55,6 4,6 L3,6 L5,10 C5,11.11 4.11,12 3,12 L2,12 C0.89,12 0,11.11 0,10 L2,6 L1,6 L1,5 L4,5 C4,4.45 4.45,4 5,4 L9,4 C9.55,4 10,4.45 10,5 L13,5 L13,6 L12,6 L14,10 L14,10 Z M2.5,7 L1,10 L4,10 L2.5,7 L2.5,7 Z M13,10 L11.5,7 L10,10 L13,10 L13,10 Z" id="Shape"></path>
        </g>
    </g>
</svg>
